!!!OTL: Trinklied.
!!!ARE: Europa, Mitteleuropa, Deutschland
!!!SCT: A0328
!!!TXL: @@DE
!!!YEM: Copyright 1995, estate of Helmut Schaffrath.
**kern	**text
!! Mixed meters:  4/2; 3/1; 3/2
*M4/2	*
*met(c|)	*
*clefC4	*
*k[b-]	*
*G:dor	*
=1	=1
!LO:TX:a:t=dor. tr.	!
{1G	Was
2G	trag
2G	ich
=2	=2
2G	auff
2G	der
1A	hen-
=3	=3
*M3/1	*
*met(3)	*
1F	-de?
1r}	.
{1c	ein
=4	=4
1d	gleß-
1c	-lein
1c	mit
=5	=5
1B-	kü-
0A	-lem
=6	=6
!LO:TX:a:t=P:0.g in the source:problem	!
!LO:N:vis=0	!
0.G}	wein.
=7||	=7||
*M4/2	*
{2r	.
2G	Wem
2G	ſol
2G	ichs
=8	=8
2G	a-
2G	-ber
1A	brin-
=9	=9
*M3/1	*
*met(3)	*
1F	-gen?
1r}	.
{1F	dem
=10	=10
1G	lieb-
1E	-ſten
1E	ſtal-
=11	=11
0D	-bru-
1C	-der
=12	=12
*M4/2	*
*met(c|)	*
2D}	mein.
{2G	Hans
4G	Ni-
4G	-ckel
4G	von
4G	der
=13-	=13-
2A/	ho-
2A/	-hen
1F	ʒin-
=14	=14
*M3/1	*
*met(3)	*
1D	-nen,
1r}	.
{1A	es
=15	=15
1B-	muß
0A	ſein
=16	=16
0G	ei-
1F#i	-gen
=17	=17
1G	ſein!
1r}	.
{1B-	Es
=18	=18
*M3/2	*
!LO:TX:a:t=P:coloured notes m. 18-20:problem	!
1c	flog
2c	ein
=19	=19
2d	vö-
2d	-ge-
2d	-lein
=20	=20
2c	ü-
2c	-ber
2c	den
=21	=21
*M3/1	*
0c}	Rein,
{1c	hel
=22	=22
0d	ut,
1d	hel
=23	=23
0B-	ut,
1c	hel
=24	=24
1B-	ut,
0G	hel
=25	=25
1F	ut,
0E	hel
=26	=26
*M4/2	*
*met(c|)	*
1D	ut!
2r}	.
!LO:SIC:o:2f#:v	!
{2F	ein
=27	=27
1G	gleß-
!LO:SIC:o:2f#:v	!
2F	-lein
!LO:SIC:o:2f#:v	!
2F	mit
=28	=28
*M3/1	*
*met(3)	*
1G	kü-
0A	-lem
=29	=29
0B-	wein,
1c	es
=30	=30
1d	muß
0c	ge-
=31	=31
1B-	-trun-
0A	-cken
=32	=32
0.G/ll}	ſein.
==	==
!!!GTL: Trink. und Zechlieder, incl. Fastnacht- u. Martinslieder
!!!AGN: Romanze, Ballade, Lied, Trinklied
!! Forster II (1540) No. 54.
!!!ONB: ESAC (Essen Associative Code) Database: ALTDEU
!!!AMT: irregular
!!!AIN: vox
!!!EED: Helmut Schaffrath
!!!EEV: 1.0
!!!RDF**kern: i = editorial accidental
!!!RDF**kern: l = terminal long
!!!AMD: Dorian
!!!URL-scan: https://rosdok.uni-rostock.de/mcrviewer/recordIdentifier/rosdok_ppn738218359/iview2/phys_0476.iview2?x=-1625.8563452843127&y=19.34448655275628&scale=0.28036994991815867&rotation=0&layout=singlePageLayout&logicalDiv=log_0012
!!!ENC: Anna Maria Matuszewska
!!!EEV: 2024/13/03
*-	*-
